X: 17175
T: Hengist's
R: slip jig
M: 9/8
K: Aminor
K:F#m
|:F2B BAB BAB|F2B BAB d2c|F2B BAB BAB|d2c B2A F2E|
F2B BAB BAB|FAB BAB dBc|F2B BAB BAB|1 d2c B2A B3:|2 d2c{Bc}B2A Bce||
|:f2b f2b agf|e2a e2a gfe|f2b f2b agf|d'2c' b2a f2e|
f2b f2b agf|e2a e2a gfe|f2b f2b agf|1 d'2c' b2a f2e:|2 d'2c' b2a b3||

